icons/Blender-Dark.svg

<svg xmlns="http://www.w3.org/2000/svg" width="256" height="256" fill="none" viewBox="0 0 256 256"><rect width="256" height="256" fill="#242938" rx="60"/><path fill="#fff" d="M105.552 137.283C106.327 123.403 113.091 111.174 123.296 102.505C133.304 93.9907 146.775 88.7866 161.473 88.7866C176.156 88.7866 189.627 93.9907 199.642 102.505C209.84 111.174 216.604 123.403 217.386 137.268C218.16 151.53 212.455 164.779 202.447 174.6C192.242 184.59 177.727 190.859 161.473 190.859C145.219 190.859 130.675 184.59 120.477 174.6C110.461 164.779 104.771 151.53 105.552 137.283V137.283Z"/><path fill="#265787" d="M132.782 138.529C133.179 131.407 136.65 125.132 141.886 120.684C147.021 116.315 153.933 113.645 161.475 113.645C169.009 113.645 175.921 116.315 181.059 120.684C186.292 125.132 189.763 131.407 190.164 138.521C190.561 145.839 187.634 152.637 182.499 157.677C177.262 162.803 169.815 166.019 161.475 166.019C153.135 166.019 145.672 162.803 140.439 157.677C135.301 152.637 132.381 145.839 132.782 138.529V138.529Z"/><path fill="#EA7600" d="M87.0902 152.92C87.139 155.707 88.0235 161.123 89.3504 165.353C92.1392 174.305 96.8694 182.587 103.451 189.886C110.206 197.389 118.523 203.415 128.13 207.693C138.228 212.186 149.169 214.476 160.534 214.457C171.88 214.442 182.821 212.107 192.919 207.58C202.526 203.26 210.836 197.208 217.579 189.702C224.157 182.372 228.88 174.075 231.676 165.123C233.082 160.599 233.97 156.008 234.326 151.402C234.675 146.864 234.529 142.318 233.888 137.776C232.636 128.925 229.588 120.62 224.895 113.05C220.604 106.094 215.071 100.004 208.493 94.8777L208.508 94.8663L142.122 43.6486C142.062 43.6034 142.014 43.5545 141.95 43.5131C137.594 40.1535 130.27 40.1648 125.48 43.5319C120.637 46.9366 120.083 52.5672 124.393 56.1188L124.374 56.1376L152.063 78.7617L67.6704 78.8521H67.558C60.5825 78.8597 53.8768 83.4583 52.5499 89.2697C51.1855 95.1903 55.9233 100.101 63.1762 100.128L63.165 100.154L105.94 100.071L29.6104 158.942C29.513 159.014 29.408 159.089 29.3181 159.161C22.1176 164.701 19.79 173.913 24.3254 179.743C28.9283 185.672 38.715 185.683 45.9904 179.777L87.6487 145.519C87.6487 145.519 87.0415 150.144 87.0902 152.92V152.92ZM194.137 168.407C185.554 177.194 173.537 182.177 160.534 182.203C147.512 182.226 135.495 177.288 126.912 168.516C122.718 164.241 119.636 159.323 117.736 154.084C115.873 148.935 115.15 143.47 115.63 137.956C116.083 132.567 117.68 127.426 120.229 122.775C122.733 118.202 126.181 114.071 130.439 110.576C138.783 103.744 149.405 100.045 160.515 100.03C171.636 100.015 182.251 103.679 190.603 110.489C194.853 113.969 198.298 118.086 200.802 122.65C203.362 127.298 204.947 132.42 205.419 137.825C205.892 143.331 205.168 148.788 203.305 153.941C201.401 159.195 198.331 164.113 194.137 168.407V168.407Z"/></svg>

<svg xmlns="http://www.w3.org/2000/svg" width="256" height="256" fill="none" viewBox="0 0 256 256"><rect width="256" height="256" fill="#242938" rx="60"/><path fill="#fff" d="M105.55 137.28c.78-13.88 7.54-26.1 17.75-34.78 10-8.5 23.48-13.71 38.17-13.71s28.16 5.2 38.17 13.71c10.2 8.67 16.96 20.9 17.75 34.77.77 14.26-4.93 27.5-14.94 37.33-10.2 9.99-24.72 16.26-40.98 16.26s-30.8-6.27-41-16.26c-10-9.82-15.7-23.07-14.92-37.32"/><path fill="#265787" d="M132.78 138.53a25.3 25.3 0 0 1 9.1-17.85 30.2 30.2 0 0 1 19.6-7.04c7.53 0 14.44 2.67 19.58 7.04a25.3 25.3 0 0 1 9.1 17.84c.4 7.32-2.53 14.12-7.66 19.16a30 30 0 0 1-21.03 8.34c-8.34 0-15.8-3.22-21.03-8.34-5.14-5.04-8.06-11.84-7.66-19.15"/><path fill="#EA7600" d="M87.09 152.92c.05 2.79.93 8.2 2.26 12.43a66 66 0 0 0 14.1 24.54 73 73 0 0 0 24.68 17.8 79 79 0 0 0 32.4 6.77 79 79 0 0 0 32.39-6.88 73 73 0 0 0 24.66-17.88 66 66 0 0 0 14.1-24.58 62.4 62.4 0 0 0 2.2-27.34 63.5 63.5 0 0 0-8.98-24.73 69 69 0 0 0-16.4-18.17v-.01l-66.38-51.22q-.08-.08-.17-.14c-4.36-3.36-11.68-3.35-16.47.02-4.84 3.4-5.4 9.04-1.09 12.59l-.02.02 27.7 22.62-84.4.1h-.11c-6.98 0-13.68 4.6-15.01 10.41-1.36 5.92 3.37 10.83 10.63 10.86l-.02.02 42.78-.08-76.33 58.87-.3.22c-7.2 5.54-9.52 14.75-4.98 20.58 4.6 5.93 14.39 5.94 21.66.04l41.66-34.26s-.6 4.62-.56 7.4m107.05 15.49c-8.59 8.78-20.6 13.77-33.6 13.8-13.03.02-25.04-4.92-33.63-13.7a40 40 0 0 1-9.17-14.43 38.2 38.2 0 0 1 2.5-31.3c2.5-4.58 5.94-8.7 10.2-12.2a47.5 47.5 0 0 1 30.07-10.55 47.4 47.4 0 0 1 30.1 10.46 42 42 0 0 1 10.2 12.16 38 38 0 0 1 4.6 15.17 38 38 0 0 1-2.1 16.12 40 40 0 0 1-9.17 14.47"/></svg>
